!!!id: 16xx:766
!!!COM: Anonim
!!!OTL: Miraculis virtutibus
!!!PDT:
!!!SMS-siglum: PL-Kk
!!!SMS-shelfmark: Kk.I.210
!!!NIFC-rismID: 1001143695
!!!URL-scan: http://repozytorium.nifc.pl/skany/pl-kk-nut--i-210
!!!ONB-nifc: UWAGA: utwory w zbiorze: 1. Miraculis virtutibus, 2. Suscipe quas dedimus
!!!SMS-variant:
!!!SMS-altvar:
**kern	**text	**text	**text	**text	**text
*I"Canto.	*	*	*	*	*
*I'C	*	*	*	*	*
*clefC1	*	*	*	*	*
*k[a-b-e-]	*	*	*	*	*
*M3/4	*	*	*	*	*
=1	=1	=1	=1	=1	=1
!LO:TX:t=P:problem:tekst zaczerpnięty z https://cutt.ly/DkX0Pwm	!	!	!	!	!
!LO:TX:t=P:problem:numery zwrotek zapisano wyłącznie na początku:global	!	!	!	!	!
!LO:TX:t=P:problem:kolejność znaków a- b- e- ee-	!	!	!	!	!
4r	.	.	.	.	.
4r	.	.	.	.	.
!LO:TX:t=P:problem:4,8\ left, middle or right:global	!	!	!	!	!
4ee-\	1 Mi-	4 Con-	7 Ut	10 ſi	13 Qui
=2	=2	=2	=2	=2	=2
4.ee-\	-ra-	-ce-	ſtel-	vi-	lau-
8ee-\	-cu-	-ptus	-la	-de-	-re-
4dd\	-lis	es	Cle-	-ris	-a
=3	=3	=3	=3	=3	=3
4ee-\	Vir-	tum	-ri	sum	nunc
4.ee-\	-tu-	na-	ful-	la-	Mar-
!LO:SIC:v:l:s=-ty-:verse 5	!	!	!	!	!
8dd\	-ti-	-tus	-se-	-bi-	-ti-
=4	=4	=4	=4	=4	=4
!LO:SIC:v:l:s=-rum:verse 5	!	!	!	!	!
*2\right	*	*	*	*	*
2ee-\	-bus,	es,	-ras,	-lis,	-num,
4b-\	Coe-	sub	ut	In	ne-
=5	=5	=5	=5	=5	=5
2b-\	-li	Vir-	Do-	Cri-	-po-
4b-\	fa-	-gi-	-ctor	-men	-mu-
=6	=6	=6	=6	=6	=6
2b-\	-vo-	-nis	e-	in-	-ce-
4an\	-re,	fa-	-mi-	-ci-	-ne
=7	=7	=7	=7	=7	=7
!LO:N:vis=2.	!	!	!	!	!
2b-\	ple-	-vo-	-ne-	-den-	gau-
!LO:N:vis=4.	!	!	!	!	!
4b-\	-ne,	-re,	-bas,	-tem,	-des,
=8	=8	=8	=8	=8	=8
4dd\	O	ut	pre-	ex-	Ad-
4ee-\	di-	nos	-cla-	-ten-	-mit-
4dd\	-gne	su-	-ra	-de	-te
=9	=9	=9	=9	=9	=9
2ee-\	cun-	-o	ſem-	dex-	vo-
4ee-\	-ctis	nunc	-per	-tram	-ta
=10	=10	=10	=10	=10	=10
4.dd\	lau-	im-	e-	pre-	su-
8dd\	-di-	-pet-	-ge-	-sto	-pli-
4dd\	-bus,	-tes,	-ras,	sis,	-cum,
=11	=11	=11	=11	=11	=11
2ee-\	A-	di-	la-	ut	pre-
4ee-\	-ve	-gni-	-te-	e-	-ces
=12	=12	=12	=12	=12	=12
!LO:SIC:v:l:s=-ri-:verse 4	!	!	!	!	!
*	*	*	*	*	*ij
4dd\	a-	-tus	-re	-ngis	pre-
!LO:SIC:v:l:s=-gas:verse 4	!	!	!	!	!
4dd\	-ve	di-	la-	e-	-ces
*	*	*	*	*	*Xij
!LO:SIC:v:l:s=e-:verse 4	!	!	!	!	!
4ee-\	Ne-	-gne-	-te-	.	pi-
!LO:LB:g=original	!	!	!	!	!
=13	=13	=13	=13	=13	=13
!LO:SIC:v:l:s=-ri-:verse 4	!	!	!	!	!
2ee-\	.	-tur	-re	-ngis	-as-
!LO:SIC:v:l:s=-gas:verse 4	!	!	!	!	!
!LO:SIC:v:l:s=hoc:verse 2	!	!	!	!	!
4ee-\	-po-	ſoc	sed	cli-	-q(ue)
=14	=14	=14	=14	=14	=14
!LO:SIC:v:l:s=cli-:verse 4	!	!	!	!	!
2ee-\	-mu-	a-	ſtu-	-en-	pre-
!LO:SIC:v:l:s=-en-:verse 4	!	!	!	!	!
4dd\	-ce-	-mo-	-de-	.	.
=15	=15	=15	=15	=15	=15
2.ee-\	-ne,	-re,	-bas,	-tem,	-ces
=16||	=16||	=16||	=16||	=16||	=16||
*M2/2	*	*	*	*	*
*met(c|)	*	*	*	*	*
!LO:SIC:v:l:s=2_Quot:verse 1	!	!	!	!	!
2b-\	2_Quod	5_Cres-	8_Tam	11_Ab-	14_Lin-
4.cc\	o-	-ce-	can-	-ſcon-	-gu-
8cc\	-ra	-bat	-di-	-de-	-as
=17	=17	=17	=17	=17	=17
!LO:SIC:v:l:s=ae-:verse 2	!	!	!	!	!
!LO:SIC:v:l:s=-Co-:verse 5	!	!	!	!	!
4dd\	sunt	e-	-di	-res	Cu-
8ff\	mor-	-tas	quam	quod	-er-
16ee-\LL	-ta-	nu-	li-	re-	-ce
16dd\JJ	.	.	.	.	.
4.cc\	.	.	.	.	no-
!LO:SIC:v:l:s=-gi-:verse 4	!	!	!	!	!
8cc\	-li-	-mi-	-li-	-vi-	-[xi]-
=18	=18	=18	=18	=18	=18
!LO:TX:t=P:problem:rozdzielacz słów / znak oddechu na 1-2 polu:global	!	!	!	!	!
4cc,<\	-um,	-niſ,	-um,	-ae,	-as,
4cc\	in-	plus	tu-	Ar-	ca-
4.dd\	-vi-	cre-	-i	-ca-	-lum-
!LO:SIC:v:l:s=-na:verse 4	!	!	!	!	!
8dd\	-to	-ve-	fue-	-ne	-nis
=19	=19	=19	=19	=19	=19
4ff\	me	-tas	-re	poe-	fu-
!LO:SIC:v:l:s=-ren-:verse 5	!	!	!	!	!
8ff\	iu-	a-	mo-	-ni-	-er-
16ee-\LL	-ra-	-mo-	-res-	-ten-	-en-
16dd\JJ	.	.	.	.	.
4.cc\	.	.	.	.	.
16b-\LL	.	.	.	.	.
16cc\JJ	.	.	.	.	.
=20	=20	=20	=20	=20	=20
8dd\	-te,	-re,	-res,	-tis,	-tes,
!LO:SIC:v:l:s=prae-:verse 4	!	!	!	!	!
8dd\	Jo-	hoc	fac	pre-	has
8dd\	-an-	fa-	pu-	-ceps	pel-
!LO:TX:t=P:problem:łamanie systemu w tym miejscu	!	!	!	!	!
8dd\	-nis	-ctus	-ri-	in	-le
4ee-\	ad	in-	-ta-	un-	fa-
!LO:SIC:v:l:s=-mae:verse 5	!	!	!	!	!
4ee-\	prae-	-vin-	-te	-das	-me
!LO:LB:g=original	!	!	!	!	!
=21	=21	=21	=21	=21	=21
4.ff\	-co-	-ci-	no-	Mol-	Vi-
8ff\	-ni-	-bi-	-xi-	-da-	-pe-
!LO:SIC:v:l:s=-vae,:verse 4	!	!	!	!	!
4ff,<\	-um,	-lis,	-um,	-ve,	-ras,
4dd\	u-	es	ut	tunc	tu-
=22	=22	=22	=22	=22	=22
4ee-\	-bi-	hos-	hor-	a-	-e-
8b-\	-que	-tis	-re-	-ctus	-re
8ee-\	u-	es	-am	tunc	te
!LO:SIC:v:l:s=co-:verse 5	!	!	!	!	!
4.dd\	-bi-	hos-	hor-	a-	col-
8dd\	-que	-tis	-re-	-ctus	-le-
=23	=23	=23	=23	=23	=23
4ee-\	con-	a	-am	eſ	-ntes
*	*	*	*	*	*ij
4b-\	-so-	fu-	quod	tu-	col-
(4cc\	-na-	-ro-	hor-	-men-	-le-
4b-\)	.	.	.	.	.
=24	=24	=24	=24	=24	=24
8b-,<\	-te,	-re,	-res,	-tis,	-ntes,
*	*	*	*	*	*Xij
8ee-\	u-	es	ut	tunc	tu-
8dd\	-bi-	hoſ-	hor-	[a-	-e-
8dd\	-q(ue)	-tis	-re-	-ctus]	-re
4ee-\	con-	a	-am	es	te
!LO:SIC:v:l:s=quod:verse 3	!	!	!	!	!
!LO:SIC:v:l:s=fu-:verse 2	!	!	!	!	!
4ee-\	-so-	fa-	quot	tu-	co-
=25	=25	=25	=25	=25	=25
!LO:SIC:v:l:s=hor-:verse 3	!	!	!	!	!
!LO:SIC:v:l:s=-ro-:verse 2	!	!	!	!	!
!LO:SIC:v:l:s=-le-:verse 5	!	!	!	!	!
4ee-\	-na-	-vo-	hort-	-men-	-lae-
4dd\	.	.	.	.	.
2ee-\	-te	-re	-res	-tis	-ntes
!LO:PB:g=original	!	!	!	!	!
=26||	=26||	=26||	=26||	=26||	=26||
*M3/4	*	*	*	*	*
!LO:TX:t=P:problem:kolejność znaków a- e- b- ee-	!	!	!	!	!
!LO:TX:t=P:problem:oznaczenie metryczne 3	!	!	!	!	!
2cc\	3_Or-	6_Im-	9_ſa-	12_No-	.
4dd\	-bis	-mo-	-cra	-stri	.
=27	=27	=27	=27	=27	=27
4ee-\	di-	-bi-	tu-	Be-	.
4ee-\	-u	-lem	-a	-a-	.
!LO:SIC:v:l:s=jam	!	!	!	!	!
4ee-\	iam	sors	fa-	-tae	.
=28	=28	=28	=28	=28	=28
4dd\	pro-	.	-cun-	Pa-	.
4.dd\	.	blan-	.	.	.
8dd\	-li-	-da	-di-	-tri-	.
=29	=29	=29	=29	=29	=29
2.ee-\	-bus,	te,	-a,	-ae.	.
=30	=30	=30	=30	=30	=30
4cc\	Au-	Vi-	Au-	Ad	.
!LO:SIC:v:l:s=lit-:verse 4	!	!	!	!	!
4cc\	-ro-	-dit-	-tho-	li-	.
4cc\	-ra	-que	-ri-	-tus	.
=31	=31	=31	=31	=31	=31
!LO:SIC:v:l:s=sae-:verse 2	!	!	!	!	!
2cc\	gra-	se-	-ta-	hinc	.
4cc\	-ti-	-va	-te	ve-	.
=32	=32	=32	=32	=32	=32
!LO:SIC:v:l:s=Ze:verse 3	!	!	!	!	!
2cc\	-a-	sta-	Le-	-ni-	.
4bn\	.	.	-lo	.	.
=33	=33	=33	=33	=33	=33
!LO:SIC:v:l:s=Ze:verse 3	!	!	!	!	!
*	*	*	*ij	*	*
2.cc\	-rum	-re	Le-	-re,	.
=34	=34	=34	=34	=34	=34
!LO:SIC:v:l:s=In:verse 1	!	!	!	!	!
2b-X\	I	sic	-lo	ne	.
*	*	*	*Xij	*	*
!LO:SIC:v:l:s=nos:verse 4	!	!	!	!	!
(4dd\	te	Cae-	Mor-	nos	.
=35-	=35-	=35-	=35-	=35-	=35-
2ee-\)	de-	.	.	ne	.
!LO:SIC:v:l:s=nos:verse 4	!	!	!	!	!
4ee-\	-dit	-li-	-ta-	nos	.
=36-	=36-	=36-	=36-	=36-	=36-
4b-\	de-	-tes	-li-	in	.
4ee-\	-dit	De-	-um	hu-	.
4ee-\	Pa-	-um-	sunt	-jus	.
=37	=37	=37	=37	=37	=37
4.dd\	-ren-	-que	Mi-	e-	.
8dd\	-ti-	a	-li-	-quo-	.
4dd\	-bus,	me,	-a,	-re	.
=38	=38	=38	=38	=38	=38
4b-\	ſi-	Pa-	A-	mun-	.
!LO:SIC:v:t=lub 4b-	!	!	!	!	!
4cc\	-dus	-tro-	-mi-	-di	.
4b-\	Ma-	-ne	-ca	si-	.
!LO:LB:g=original	!	!	!	!	!
=39	=39	=39	=39	=39	=39
8cc\	-ri-	fac	fa-	-nas	.
8cc\	-a	a-	-cta	pe-	.
2b-\	ra-	-ma-	cae-	-ri-	.
=40	=40	=40	=40	=40	=40
!LO:SIC:v:l:s=-re:verse 2	!	!	!	!	!
2.b-\	-rum,	-te,	-lo,	-re,	.
=41	=41	=41	=41	=41	=41
!LO:SIC:v:l:s=sic:verse 2	!	!	!	!	!
2ee-\	In	su	mor-	ne	.
4gg\	te	cae-	-ta-	nos	.
=42	=42	=42	=42	=42	=42
4ee-\	de-	-li-	-li-	in	.
4ee-\	-dit	-tes	-um	hu-	.
4dd\	Pa-	De-	sunt	-jus	.
=43	=43	=43	=43	=43	=43
!LO:SIC:v:l:s=mil-:verse 3	!	!	!	!	!
4.ee-\	-ren-	-um-	mel-	e-	.
8ee-\	-ti-	-que	-li-	-quo-	.
4ee-\	-bus,	a-	-a,	-re,	.
=44	=44	=44	=44	=44	=44
2b-\	si-	-me,	a-	mun-	.
4g/	-dus	Pa-	-mi-	-di	.
=45	=45	=45	=45	=45	=45
4b-\	ſi-	-tro-	-ca	si-	.
4b-\	-dus	-ne	fa-	-nas	.
4dd\	ma-	fac	-cta	pe-	.
=46	=46	=46	=46	=46	=46
2ee-\	-ri-	a-	fa-	-ri-	.
4ee-\	-a	-ma-	-cta	-re	.
=47	=47	=47	=47	=47	=47
!LO:SIC:v:l:s=Cae-:verse 3	!	!	!	!	!
!LO:SIC:v:l:s=-re:verse 2	!	!	!	!	!
4ee-\	ra-	-te	Ce-	pe-	.
4ee-\	.	a-	.	-ri-	.
4dd\	.	-ma-	.	.	.
=48-	=48-	=48-	=48-	=48-	=48-
!LO:SIC:v:l:s=-re:verse 2	!	!	!	!	!
2.ee-\	-rum	-te	-lo	-re	.
==	==	==	==	==	==
*-	*-	*-	*-	*-	*-
!!!RDF**kern: > = above
!!!RDF**kern: < = below
!!!ENC: Andrzej Kubiczek
!!!END: 2021-02-13
